!! 00000] TT[WS
!!!OTL: Mawang xiaodiao
!!!ARE: Asia, China, Shanxi Wuxiang
!! Ethnic Group: Han
!! WII, 218 (2)
!!!SCT: J0726
!!!YEM: Copyright 1995, estate of Helmut Schaffrath.
**kern
*ICvox
*Ivox
*M2/4
*k[f#c#g#]
*A:
{8ee
8ee
8aa
16ff#
16ee
=1
8dd
8ee
4b
=2
8ee
16ee
16cc#
8b
16b
16f#
=3
2a}
=4
{8.ee
16cc#
8b
8cc#
=5
8.a
16f#
4e
=6
16a
16b
16g#
16f#
16e
16f#
16e
16B
=7
2e}
==
!!!AGN: Xiaodiao. XÅshi, Sushuo
!!!ONB: ESAC (Essen Associative Code) Database: CHINA
!!!AMT: simple duple
!!!AIN: vox
!!!EED: Helmut Schaffrath
!!!EEV: 1.0
*-
